components/ui-node-icon/src/multiSource/multiSource.medium.svg

<svg width="24" height="24" viewBox="0 0 24 24" fill="none" xmlns="http://www.w3.org/2000/svg">
  <path fill-rule="evenodd" clip-rule="evenodd" d="M2.48087 6.2686C2.05884 4.6664 3.01556 3.02543 4.61777 2.60341L12.3539 0.565689L18.7173 5.09421L21.5191 15.7314C21.9412 17.3336 20.9844 18.9746 19.3822 19.3966L9.71207 21.9437C8.10986 22.3658 6.4689 21.409 6.04687 19.8068L2.48087 6.2686ZM9.98755 12.986C10.0348 13.2266 10.0393 13.4533 10.001 13.6659C9.96476 13.8779 9.89107 14.0699 9.77989 14.2418C9.66871 14.4138 9.52162 14.563 9.33862 14.6894C9.15506 14.8137 8.94062 14.9082 8.69532 14.9728C8.41774 15.0459 8.15804 15.0602 7.91622 15.0158C7.67383 14.9692 7.45539 14.8737 7.26089 14.7293C7.06583 14.5828 6.89555 14.3907 6.75007 14.1528C6.60459 13.915 6.49105 13.6412 6.40943 13.3313L6.24279 12.6987C6.16061 12.3867 6.12639 12.0908 6.14015 11.8111C6.1539 11.5313 6.21172 11.2791 6.3136 11.0543C6.41548 10.8296 6.55962 10.6386 6.746 10.4814C6.93398 10.3214 7.16138 10.2063 7.4282 10.136C7.68641 10.068 7.92521 10.0442 8.1446 10.0647C8.36614 10.0845 8.56577 10.1436 8.7435 10.2417C8.92123 10.3399 9.07676 10.4761 9.21011 10.6504C9.34346 10.8246 9.45319 11.0316 9.53933 11.2712L8.63557 11.5093C8.59012 11.3717 8.5363 11.2547 8.4741 11.1583C8.41405 11.0614 8.34268 10.987 8.25999 10.9351C8.17888 10.8806 8.08538 10.8488 7.97948 10.8399C7.87516 10.8283 7.7563 10.84 7.62289 10.8751C7.48302 10.912 7.36938 10.9741 7.28197 11.0616C7.19455 11.149 7.13172 11.2599 7.09347 11.3943C7.05737 11.528 7.04557 11.6842 7.05807 11.8627C7.07 12.039 7.10431 12.2348 7.16098 12.45L7.32932 13.089C7.45118 13.5517 7.60585 13.8768 7.79334 14.0644C7.98298 14.2515 8.21874 14.3079 8.50063 14.2336C8.73732 14.1713 8.90809 14.0596 9.01293 13.8985C9.11721 13.7353 9.13975 13.5107 9.08056 13.2249L9.98755 12.986ZM13.1992 12.4024C13.1771 12.3184 13.1413 12.2439 13.0919 12.1786C13.0447 12.1128 12.9773 12.0581 12.8899 12.0144C12.804 11.968 12.6973 11.934 12.5696 11.9124C12.4435 11.8881 12.2906 11.8754 12.1109 11.8744C11.8917 11.8723 11.6775 11.854 11.4682 11.8194C11.261 11.7842 11.0709 11.7261 10.8977 11.6452C10.7245 11.5642 10.5742 11.4566 10.4467 11.3222C10.3214 11.1872 10.2318 11.0175 10.178 10.8131C10.1259 10.6151 10.1205 10.4244 10.1619 10.2409C10.2033 10.0574 10.2832 9.88907 10.4017 9.73591C10.5201 9.58276 10.6725 9.44942 10.8589 9.33589C11.0447 9.22021 11.256 9.1312 11.4927 9.06885C11.738 9.00424 11.9712 8.9808 12.1921 8.99853C12.4153 9.01569 12.617 9.06956 12.7973 9.16012C12.9771 9.24854 13.1311 9.3702 13.2593 9.52511C13.3876 9.68002 13.4795 9.86291 13.535 10.0738L12.6506 10.3067C12.6185 10.2024 12.5737 10.1107 12.516 10.0315C12.4605 9.95182 12.3912 9.88955 12.308 9.84472C12.2265 9.79717 12.1317 9.76921 12.0236 9.76086C11.9171 9.74978 11.7983 9.76153 11.667 9.79611C11.5465 9.82785 11.4429 9.87125 11.3561 9.92631C11.271 9.97866 11.2032 10.0402 11.1528 10.111C11.1019 10.1797 11.0688 10.2551 11.0537 10.3373C11.0401 10.4169 11.0444 10.4986 11.0665 10.5825C11.0897 10.6707 11.1322 10.7447 11.1939 10.8043C11.2578 10.8634 11.3394 10.911 11.4386 10.947C11.5373 10.9808 11.652 11.0058 11.7828 11.022C11.9158 11.0376 12.063 11.046 12.2244 11.0472C12.456 11.0529 12.6741 11.0772 12.8786 11.1199C13.0832 11.1627 13.2664 11.2295 13.4284 11.3203C13.592 11.4084 13.7303 11.5227 13.8432 11.6632C13.9577 11.801 14.0405 11.9667 14.0915 12.1604C14.1459 12.367 14.1524 12.562 14.111 12.7455C14.0712 12.9263 13.9929 13.0919 13.876 13.2423C13.7586 13.3906 13.6064 13.5204 13.4194 13.6318C13.2319 13.741 13.0187 13.8271 12.7799 13.89C12.6314 13.9291 12.4792 13.9542 12.3234 13.9654C12.1703 13.9781 12.0186 13.9743 11.8683 13.9541C11.7201 13.9333 11.5769 13.8962 11.4386 13.8429C11.3003 13.7896 11.1734 13.7183 11.0578 13.6291C10.9444 13.5393 10.8443 13.4299 10.7574 13.3009C10.6726 13.1714 10.6076 13.0206 10.5622 12.8484L11.4531 12.6138C11.4948 12.7546 11.5516 12.8697 11.6234 12.9589C11.6952 13.0482 11.7794 13.1146 11.8761 13.1582C11.9748 13.2012 12.0841 13.223 12.204 13.2237C12.3259 13.2237 12.4547 13.2059 12.5903 13.1702C12.7108 13.1385 12.8136 13.0964 12.8988 13.0441C12.9861 12.9912 13.0555 12.9315 13.107 12.865C13.1585 12.7985 13.1924 12.7263 13.2087 12.6484C13.2245 12.5683 13.2213 12.4863 13.1992 12.4024ZM16.2576 7.88279L16.2619 11.5024L14.4921 8.34784L13.4915 8.61139L16.1496 12.9368L17.0727 12.6937L17.2582 7.61923L16.2576 7.88279Z" fill="var(--tbl--colors--icons--transformation--primary)"/>
  <path d="M18.7173 5.0942L12.3539 0.565674L13.3728 4.43374C13.6541 5.50187 14.7481 6.13969 15.8162 5.85834L18.7173 5.0942Z" fill="white" fill-opacity="0.7"/>
  <path fill-rule="evenodd" clip-rule="evenodd" d="M9 3C7.34315 3 6 4.34315 6 6V20C6 21.6569 7.34315 23 9 23H19C20.6569 23 22 21.6569 22 20V8L17 3H9Z" fill="var(--tbl--colors--icons--clean--primary)"/>
  <path fill-rule="evenodd" clip-rule="evenodd" d="M13.5 11L11 11C10.4477 11 10 11.4477 10 12V14H13.5V11ZM14.5 11V14H18V12C18 11.4477 17.5523 11 17 11L14.5 11ZM13.5 15H10V17C10 17.5523 10.4477 18 11 18H13.5V15ZM14.5 18V15H18V17C18 17.5523 17.5523 18 17 18H14.5ZM14.5 19H13.5H11C9.89543 19 9 18.1046 9 17V15V14V12C9 10.8954 9.89543 10 11 10H17C18.1046 10 19 10.8954 19 12V14V15V17C19 18.1046 18.1046 19 17 19H14.5Z" fill="white"/>
  <path d="M22 8L17 3V6C17 7.10457 17.8954 8 19 8H22Z" fill="white" fill-opacity="0.5"/>
</svg>

<svg xmlns="http://www.w3.org/2000/svg" width="24" height="24" fill="none" viewBox="0 0 24 24">
  <path fill="var(--tbl--colors--icons--transformation--primary)" fill-rule="evenodd" d="M2.48 6.269a3 3 0 0 1 2.138-3.666L12.354.566l6.363 4.528 2.802 10.637a3 3 0 0 1-2.137 3.666l-9.67 2.547a3 3 0 0 1-3.665-2.137L2.48 6.269Zm7.508 6.717c.047.24.051.467.013.68a1.52 1.52 0 0 1-.662 1.023 2.084 2.084 0 0 1-.644.284 1.778 1.778 0 0 1-.779.043 1.588 1.588 0 0 1-.655-.287 2.04 2.04 0 0 1-.51-.576 3.056 3.056 0 0 1-.342-.822l-.166-.632a2.919 2.919 0 0 1-.103-.888c.014-.28.072-.532.174-.757.101-.224.246-.415.432-.573.188-.16.415-.275.682-.345.258-.068.497-.092.717-.071.221.02.42.079.598.177.178.098.334.234.467.408.133.175.243.382.33.621l-.904.238a1.535 1.535 0 0 0-.162-.35.68.68 0 0 0-.214-.224.581.581 0 0 0-.28-.095.985.985 0 0 0-.357.035.735.735 0 0 0-.341.187.75.75 0 0 0-.189.332c-.036.134-.047.29-.035.469.012.176.046.372.103.587l.168.639c.122.463.277.788.464.975.19.188.426.244.708.17.236-.063.407-.174.512-.335.104-.164.127-.388.068-.674l.907-.239Zm3.211-.584a.634.634 0 0 0-.107-.223.538.538 0 0 0-.202-.165 1.039 1.039 0 0 0-.32-.102 2.542 2.542 0 0 0-.46-.038 4.18 4.18 0 0 1-.642-.055 2.22 2.22 0 0 1-.57-.174 1.478 1.478 0 0 1-.451-.323 1.172 1.172 0 0 1-.269-.509 1.19 1.19 0 0 1-.016-.572c.041-.184.121-.352.24-.505.118-.153.27-.287.457-.4a2.3 2.3 0 0 1 .634-.267c.245-.065.478-.088.7-.07.222.017.424.07.604.161a1.389 1.389 0 0 1 .738.914l-.884.233a.925.925 0 0 0-.135-.276.657.657 0 0 0-.492-.27 1 1 0 0 0-.357.035 1.1 1.1 0 0 0-.31.13.686.686 0 0 0-.204.185.54.54 0 0 0 .04.693c.065.06.146.107.246.143.098.034.213.059.344.075.133.016.28.024.441.025.232.006.45.03.655.073.204.043.387.11.55.2.163.088.301.203.414.343.115.138.197.304.248.497.055.207.061.402.02.585-.04.181-.118.347-.235.497a1.65 1.65 0 0 1-.457.39c-.187.109-.4.195-.64.258a2.49 2.49 0 0 1-.91.064 1.941 1.941 0 0 1-.43-.111 1.507 1.507 0 0 1-.381-.214c-.114-.09-.214-.2-.3-.328-.085-.13-.15-.28-.196-.453l.891-.234c.042.14.099.256.17.345.072.09.156.156.253.2a.825.825 0 0 0 .328.065c.122 0 .25-.018.386-.054.12-.031.224-.074.309-.126a.751.751 0 0 0 .208-.179.527.527 0 0 0 .102-.217.542.542 0 0 0-.01-.246Zm3.059-4.52.004 3.62-1.77-3.154-1 .263 2.658 4.326.923-.243.185-5.075-1 .264Z" clip-rule="evenodd"/>
  <path fill="#fff" fill-opacity=".7" d="M18.717 5.094 12.354.566l1.019 3.868a2 2 0 0 0 2.443 1.424l2.901-.764Z"/>
  <path fill="var(--tbl--colors--icons--clean--primary)" fill-rule="evenodd" d="M9 3a3 3 0 0 0-3 3v14a3 3 0 0 0 3 3h10a3 3 0 0 0 3-3V8l-5-5H9Z" clip-rule="evenodd"/>
  <path fill="#fff" fill-rule="evenodd" d="M13.5 11H11a1 1 0 0 0-1 1v2h3.5v-3Zm1 0v3H18v-2a1 1 0 0 0-1-1h-2.5Zm-1 4H10v2a1 1 0 0 0 1 1h2.5v-3Zm1 3v-3H18v2a1 1 0 0 1-1 1h-2.5Zm0 1H11a2 2 0 0 1-2-2v-5a2 2 0 0 1 2-2h6a2 2 0 0 1 2 2v5a2 2 0 0 1-2 2h-2.5Z" clip-rule="evenodd"/>
  <path fill="#fff" fill-opacity=".5" d="m22 8-5-5v3a2 2 0 0 0 2 2h3Z"/>
</svg>
